remix/Media/pause-mini-fill.svg

<svg viewBox="0 0 24 24" fill="currentColor" xmlns="http://www.w3.org/2000/svg"><path d="M15 7C15 6.44772 15.4477 6 16 6C16.5523 6 17 6.44772 17 7V17C17 17.5523 16.5523 18 16 18C15.4477 18 15 17.5523 15 17V7ZM7 7C7 6.44772 7.44772 6 8 6C8.55228 6 9 6.44772 9 7V17C9 17.5523 8.55228 18 8 18C7.44772 18 7 17.5523 7 17V7Z"/></svg>

<svg viewBox="0 0 24 24" xmlns="http://www.w3.org/2000/svg"><path fill="none" d="M0 0h24v24H0Z"/><path d="M15 7v0c0-.56.44-1 1-1 .55 0 1 .44 1 1v10 0c0 .55-.45 1-1 1 -.56 0-1-.45-1-1V7ZM7 7v0c0-.56.44-1 1-1 .55 0 1 .44 1 1v10 0c0 .55-.45 1-1 1 -.56 0-1-.45-1-1V7Z"/></svg>
